X:185
T:Watchdog at the Gate* +(h)
B:NFID.155c ("untitled highland")
185watchd
S:CC
N:First part should be played an octave lower than notated.
L:1/8
M:C
R:hornpipe
Q:280
K:Am
GB|AA B/A/G/A/ ed B/c/B/A/|GABG dGBG|
AA B/A/G/A/ ed B/c/B/A/|GABG (3ABA:|
Gd|ebag e^de^f|gggg dgBG|Abag e^de^f|gdBG (3ABA ^GA|
Abag e^de^f|gggg dg^fg|(3ag^f (3gfe dfA^F|\
GEDB, (3A,B,A, G,2||
= = =
P:simplified version
B|A2AG edBA|GABG dGBG|A2AG edBA|GABG A3:|
d|ebag e^de^f|g2^fg dgBG|Abag e^de^f|gdBG A2GA|
Abag e^de^f|g2^fg dgfg|a^fge dBA^F|GBAG A4||

%%%

